X: 17
T:Kesh Jig
R:jig
C:Trad.
M:6/8
L:1/8
K:G
D|G3 GAB|ABA ABd|edd gdd|edB dBA|GAG GAB|
ABA ABd|edd gdB|AGF G2:|A|B3 dBd|ege dBG|
B3 dBG|ABA AGA|B3 dBd|ege dBd|gfg aga|bgg g2:|
